src/assets/img/settings.svg

<svg version="1.2" baseProfile="tiny-ps" xmlns="http://www.w3.org/2000/svg" width="29" height="30"><style></style><g id="1"><g id="Header"><g id="Settings"><path id="Shape 16" d="m27.58 12.41-.41.23c-.88.5-1.41 1.38-1.41 2.37 0 .98.53 1.87 1.41 2.36l.41.23c.65.37 1.12.95 1.32 1.66.19.7.09 1.44-.29 2.07l-1.4 2.36c-.78 1.3-2.5 1.76-3.85 1l-.42-.23c-.88-.49-1.93-.5-2.81 0-.88.49-1.41 1.38-1.41 2.36v.47c0 1.5-1.26 2.72-2.81 2.72h-2.82c-1.55 0-2.82-1.22-2.82-2.72v-.47c0-.98-.52-1.87-1.4-2.36-.89-.49-1.94-.49-2.82 0l-.41.23c-1.34.75-3.07.31-3.85-1L.38 21.33c-.37-.63-.47-1.37-.28-2.07.2-.71.66-1.29 1.32-1.66l.41-.23c.88-.49 1.41-1.38 1.41-2.36 0-.99-.53-1.87-1.41-2.37l-.42-.23C.76 12.05.3 11.46.1 10.75c-.19-.7-.09-1.44.28-2.07l1.41-2.36c.78-1.3 2.5-1.75 3.85-1l.41.23c.88.49 1.93.5 2.82 0a2.67 2.67 0 0 0 1.4-2.36v-.46c0-1.51 1.27-2.73 2.82-2.73h2.82c1.55 0 2.81 1.22 2.81 2.73v.46c0 .99.53 1.87 1.41 2.36.88.5 1.94.5 2.81 0l.42-.23c1.34-.75 3.07-.31 3.85 1l1.4 2.36c.38.63.48 1.37.29 2.07-.2.71-.67 1.3-1.32 1.66Zm-2.81-4.73-.42.24c-1.76.98-3.87.98-5.63 0-1.76-.99-2.81-2.76-2.81-4.73v-.46h-2.82v.46c0 1.97-1.05 3.74-2.82 4.73-1.76.98-3.87.98-5.63 0l-.41-.24-1.41 2.37.42.23c1.76.99 2.81 2.75 2.81 4.73 0 1.97-1.05 3.74-2.81 4.72l-.42.23 1.41 2.37.41-.23c.88-.5 1.85-.74 2.82-.74.97 0 1.93.24 2.81.74 1.77.98 2.82 2.75 2.82 4.72v.47h2.82v-.47c0-1.97 1.05-3.74 2.81-4.72 1.77-.99 3.87-.99 5.63 0l.42.23 1.4-2.37-.41-.23c-1.76-.98-2.82-2.75-2.82-4.72 0-1.98 1.06-3.74 2.82-4.73l.41-.23-1.4-2.37ZM14.5 19.1c-2.33 0-4.23-1.84-4.23-4.09 0-2.26 1.9-4.1 4.23-4.1 2.33 0 4.22 1.84 4.22 4.1 0 2.25-1.89 4.09-4.22 4.09Zm0-5.46c-.78 0-1.41.61-1.41 1.37 0 .75.63 1.36 1.41 1.36.78 0 1.41-.61 1.41-1.36 0-.76-.63-1.37-1.41-1.37Z" style="fill:#4a5d75"/></g></g></g></svg>

<svg version="1.2" baseProfile="tiny-ps" xmlns="http://www.w3.org/2000/svg" viewBox="0 0 29 30" width="29" height="30">
	<title>1</title>
	<style>
		tspan { white-space:pre }
		.shp0 { fill: #4a5d75 } 
	</style>
	<g id="1">
		<g id="Header">
			<g id="Settings">
				<path id="Shape 16" class="shp0" d="M27.58 12.41L27.17 12.64C26.29 13.14 25.76 14.02 25.76 15.01C25.76 15.99 26.29 16.88 27.17 17.37L27.58 17.6C28.23 17.97 28.7 18.55 28.9 19.26C29.09 19.96 28.99 20.7 28.61 21.33L27.21 23.69C26.43 24.99 24.71 25.45 23.36 24.69L22.94 24.46C22.06 23.97 21.01 23.96 20.13 24.46C19.25 24.95 18.72 25.84 18.72 26.82L18.72 27.29C18.72 28.79 17.46 30.01 15.91 30.01L13.09 30.01C11.54 30.01 10.27 28.79 10.27 27.29L10.27 26.82C10.27 25.84 9.75 24.95 8.87 24.46C7.98 23.97 6.93 23.97 6.05 24.46L5.64 24.69C4.3 25.44 2.57 25 1.79 23.69L0.38 21.33C0.01 20.7 -0.09 19.96 0.1 19.26C0.3 18.55 0.76 17.97 1.42 17.6L1.83 17.37C2.71 16.88 3.24 15.99 3.24 15.01C3.24 14.02 2.71 13.14 1.83 12.64L1.41 12.41C0.76 12.05 0.3 11.46 0.1 10.75C-0.09 10.05 0.01 9.31 0.38 8.68L1.79 6.32C2.57 5.02 4.29 4.57 5.64 5.32L6.05 5.55C6.93 6.04 7.98 6.05 8.87 5.55C9.75 5.06 10.27 4.18 10.27 3.19L10.27 2.73C10.27 1.22 11.54 0 13.09 0L15.91 0C17.46 0 18.72 1.22 18.72 2.73L18.72 3.19C18.72 4.18 19.25 5.06 20.13 5.55C21.01 6.05 22.07 6.05 22.94 5.55L23.36 5.32C24.7 4.57 26.43 5.01 27.21 6.32L28.61 8.68C28.99 9.31 29.09 10.05 28.9 10.75C28.7 11.46 28.23 12.05 27.58 12.41ZM24.77 7.68L24.35 7.92C22.59 8.9 20.48 8.9 18.72 7.92C16.96 6.93 15.91 5.16 15.91 3.19L15.91 2.73L13.09 2.73L13.09 3.19C13.09 5.16 12.04 6.93 10.27 7.92C8.51 8.9 6.4 8.9 4.64 7.92L4.23 7.68L2.82 10.05L3.24 10.28C5 11.27 6.05 13.03 6.05 15.01C6.05 16.98 5 18.75 3.24 19.73L2.82 19.96L4.23 22.33L4.64 22.1C5.52 21.6 6.49 21.36 7.46 21.36C8.43 21.36 9.39 21.6 10.27 22.1C12.04 23.08 13.09 24.85 13.09 26.82L13.09 27.29L15.91 27.29L15.91 26.82C15.91 24.85 16.96 23.08 18.72 22.1C20.49 21.11 22.59 21.11 24.35 22.1L24.77 22.33L26.17 19.96L25.76 19.73C24 18.75 22.94 16.98 22.94 15.01C22.94 13.03 24 11.27 25.76 10.28L26.17 10.05L24.77 7.68ZM14.5 19.1C12.17 19.1 10.27 17.26 10.27 15.01C10.27 12.75 12.17 10.91 14.5 10.91C16.83 10.91 18.72 12.75 18.72 15.01C18.72 17.26 16.83 19.1 14.5 19.1ZM14.5 13.64C13.72 13.64 13.09 14.25 13.09 15.01C13.09 15.76 13.72 16.37 14.5 16.37C15.28 16.37 15.91 15.76 15.91 15.01C15.91 14.25 15.28 13.64 14.5 13.64Z" />
			</g>
		</g>
	</g>
</svg>
